src/assets/flame.svg

<svg width="12" height="16" viewBox="0 0 12 16" fill="none" xmlns="http://www.w3.org/2000/svg">
<path d="M7.26713 0.224121C7.00312 -0.0166337 6.62823 -0.069464 6.31142 0.0950646C5.98632 0.262612 5.80679 0.608273 5.85205 0.975066C6.04515 2.51318 5.62651 4.09809 4.73417 5.21356C4.66854 5.29507 4.61801 5.34489 4.58255 5.37357C4.53126 5.29734 4.44376 5.123 4.33212 4.73281C4.20691 4.30036 4.20238 3.63771 4.20238 3.63092C4.20163 3.44149 4.08396 3.27243 3.90594 3.20752C3.72868 3.14111 3.52954 3.19394 3.40659 3.33809C3.35153 3.40149 2.07675 4.89809 1.67546 5.51394C0.103485 7.92753 -0.355887 10.074 0.270187 12.0747C1.00186 14.4121 3.28816 16 5.87996 16C5.95841 16 6.03761 15.9985 6.11681 15.9955C8.98921 15.8883 11.3547 13.8272 11.8699 10.9819C12.5058 7.46036 10.7852 3.43847 7.26713 0.224121ZM10.9783 10.8211C10.5401 13.2438 8.52682 15 6.08287 15.0906C3.79657 15.1826 1.76598 13.8241 1.13311 11.8045C0.59303 10.077 1.01846 8.18112 2.43429 6.00828C2.61985 5.723 3.03623 5.20149 3.40584 4.75092C3.42168 4.83017 3.44053 4.90866 3.46165 4.98338C3.62157 5.54036 3.83126 6.07998 4.27178 6.25809C4.5388 6.36753 4.96348 6.37357 5.4402 5.7796C6.47284 4.48903 6.95334 2.75167 6.76551 0.99318C9.97961 3.97885 11.5531 7.643 10.9783 10.8211Z" fill="#6F737A"/>
</svg>

<svg width="12" height="16" fill="none" xmlns="http://www.w3.org/2000/svg"><path d="M7.267.224a.835.835 0 0 0-.956-.129.86.86 0 0 0-.459.88c.193 1.538-.225 3.123-1.118 4.239a1.08 1.08 0 0 1-.151.16c-.052-.077-.14-.251-.25-.641-.126-.433-.13-1.095-.13-1.102a.452.452 0 0 0-.796-.293c-.055.063-1.33 1.56-1.732 2.176-1.572 2.414-2.03 4.56-1.405 6.56C1.002 14.413 3.288 16 5.88 16c.078 0 .158-.002.237-.005 2.872-.107 5.238-2.168 5.753-5.013.636-3.522-1.085-7.544-4.603-10.758zm3.711 10.597c-.438 2.423-2.451 4.179-4.895 4.27-2.286.092-4.317-1.267-4.95-3.286-.54-1.728-.115-3.624 1.301-5.797.186-.285.602-.807.972-1.257.016.08.035.158.056.232.16.557.37 1.097.81 1.275.267.11.691.116 1.168-.478C6.473 4.489 6.953 2.752 6.766.993c3.214 2.986 4.787 6.65 4.212 9.828z" fill="#6F737A"/></svg>
